X: 30476
T: Old Willie Hunter
R: reel
M: 4/4
K: Amajor
ed|:cA ~A2EAcA|eaga ecAc|dB~B2FBBc|dBba gfed|
cA ~A2EAcA|eaga ecAc|dBba gfed|1 cABGA2ed:|2 cABGA2(3efg||
|:aA~A2ecAc|eaga ecAc|bB~B2fdBc|dBba gbeg|
[1aA~A2ecAc|eaga ecAc|dBba gfed|cABGA2(3efg:|
[2acea gBeg|fAdf eAce|dBba gfed|cABGA2||

